X:1
T:De Profundis
T:Georg Reutter (previously ascribed to Mozart, K. 93)
T:BC realization by BMarble
T:De Profundis
C:Georg Reutter
C:(previously ascribed to
C:Mozart, K. 93)
Z:BC realization by BMarble
%%score [ ( 1 2 3 ) ( 4 5 ) ] { ( 6 7 ) | 8 } 9
L:1/8
Q:1/4=80
M:4/4
K:Eb
V:1 treble nm="SOPRANO ALTO" snm="S."
V:2 treble 
V:3 treble 
V:4 bass nm="TENOR BASS" snm="B."
V:5 bass 
V:6 treble nm="Organ" snm="Org."
V:7 treble 
V:8 bass 
V:9 bass nm="Pedals" snm="Ped."
V:1
!p! C3 C [CD]2 [=B,D][B,D] | [CE][CE][CE]E [EF]>[EF] [DF]2 | [EG]>[EG] [EG][EG] [FA][FA][FA][EG] | %3
w: De pro- fun- dis cla-|ma- vi ad te Do- mi- ne,|Do- mi- ne, ex- au- di vo- cem|
 [EG]2 [DF]2 z2!mf! [FB][FA] | (G>F) G2 cedc | [Ec]2 [D=B]2 z2 [DB]2 | (c>=B)!p! c2 _dddc | %7
w: me- am; fi- ant|au- * res tu- ae in- ten-|den- tes in|vo- * cem de- pre- ca- ti-|
 =B2 c2 (c2 B2) | [Ec]2 z2 [Ge][Ge][Ge][Ge] | [F_d][Fd][Fd][Fd] [Ed]>[Ed] [Ed]2 | %10
w: o- nis me- *|ae. Si i- ni- qui-|ta- tes ob- ser- va- ve- ris,|
 [Ec]>[Ec] [Ec] z [EB]>[EB] [EB][EB] | [Ec][E_d] [Ec]2 [EB]2 z2 | %12
w: Do- mi- ne, Do- mi- ne, quis|su- sti- ne- bit?|
 [EB][EB][EB][EB] [CB][CB][Cc][GB] | [FA]2 [GB][FA] ([FA]2 [=EG]2) | %14
w: Qui- a a- pud te pro- pi- ti-|a- ti- o est, _|
 z GGA B2"^original: alto q e§" B2 | [GB]2 [Gc][GB] [FA]>[FA] [FA][FB] | ([FA]2 [=EG]>)[EG] F2 z2 | %17
w: et pro- pter le- gem|tu- am su- sti- nu- it te,|Do- * mi- ne.|
 z [FA] [FA][FA]/[FA]/ [FA][FA]/[FA]/ [FA]2 | [EG][EG][FA][EG] [EG]2 [DF]2 | %19
w: Sus- ti- nu- it a- ni- ma me-|a in ver- bo e- ius|
 z FFF [EG][EG]/[EG]/ [EG]2 | [EG][EG] [EG]>[EG] [EA]2 z2 | %21
w: spe- ra- vit a- ni- ma me-|a in Do- mi- no.|
 [Ec][Ec] [Ec][Ec]/[Ec]/ [E_d][Ed] [Ed]2 | [Ec] !>![Ec]2 [FB]/[FA]/ [EA]2 [EG]2 | %23
w: A cu- sto- di- a ma- tu- ti-|na us- que ad no- ctem|
 [EG]3 [EG] [EA]>[EA] [EA][EA] | (A2 G>)G A2 z2 | [EA][EA][EA][EA] [E_G]>[EG] [EG][EG] | %26
w: spe- ret Is- ra- el in|Do- * mi- no.|Qui- a a- pud Do- mi- num mi-|
 [E_G]3 [EG] [_DF]>[DF] [DF]2 | z FF[_DB] [DB][C=A][FA][FA] | [FB]2 [FB][F_d] [Fd]>[Fc] [Fc]2 | %29
w: se- ri- cor- di- a|et co- pi- o- sa a- pud|e- um re- dem- pti- o,|
 z2 [Fc]2 [F_d][Fd] [Fd][Fd]/[Fd]/ | [E_d]>[Ed] [Ed]2 z2 [Ed]2 | [Ec]>[Ec] [Ec][Ec] [FB]3 [FA] | %32
w: et i- pse re- di- met|Is- ra- el ex|o- mni- bus i- ni- qui-|
 [EG]2 [EA][EA] ([EG]2 [DF]2) | E4 z4 || %34
w: ta- ti- bus e- *|ius.|
"^original: alto doubles soprano until ms. 45"!f! E4 G2 B2 | B2 BB c3 c | B2 z2 B3 B | c>c A2 B4 | %38
w: Glo- ri- a|Pa- tri e Fi- li-|o et Spi-|ri- tu- i San-|
 G2 z2 E2 G2 | BBBB B>B BB | B2 B2 c2 B2 | z2 BB B>B B2 | B3 B c2 A2 | B4 G2 z2 | %44
w: cto, si- cut|e- rat in prin- ci- pi- o, et|nunc et sem- per|et in sae- cu- la|sae- cu- lo- rum.|A- men|
 ([EG] [FA]2 [EG]) ([EG][DF]) z2 | ([DF] [EG]2 [DF]) ([DF][CE]) z2 | %46
w: A- * * men, _|A- * * men. _|
 ([CE] [DF]2) [CE] ([CE][=B,D]) [CE]2 | ([CE]2 [=B,D]2) C2 z2 | z8 |] %49
w: a- * men, a- * men,|a- * men.||
V:2
 x8 | x8 | x8 | x8 | E2 E2 EGFE | x8 | G2 G2 FFFF | D2 E2 D4 | x8 | x8 | x8 | x8 | x8 | x8 | %14
 z GGF =E2 (EF) | x8 | x8 | x8 | x8 | x8 | x8 | x8 | x8 | x8 | E3 E E2 x2 | x8 | x8 | x8 | x8 | %29
 x8 | x8 | x8 | x8 | x8 || E4 E2 F2 | G2 GG E3 E | E2 x2 E3 E | C>C F2 B,4 | B,2 x2 E2 E2 | %39
 FFFE D>D DD | E2 E2 (C>D) E2 | x2 B,E F>F F2 | G3 E C2 C2 | F4 B,2 x2 | x8 | x8 | x8 | x8 | x8 |] %49
V:3
 x8 | x8 | x8 | x8 | x8 | x8 | x8 | x8 | x8 | x8 | x8 | x8 | x8 | x8 | x6 =E2 | x8 | x8 | x8 | x8 | %19
 x8 | x8 | x8 | x8 | x8 | x8 | x8 | x8 | x8 | x8 | x8 | x8 | x8 | x8 | x8 || x8 | x8 | x8 | x8 | %38
 x8 | x8 | x8 | x8 | x8 | x8 | x8 | x8 | x8 | x8 | x8 |] %49
V:4
 [C,E,]3 [C,E,] [G,,G,]2 [G,,G,][G,,G,] | [C,G,][C,G,][C,G,][C,C] [A,,C]>[A,,C] [B,,B,]2 | %2
 [E,B,]>[E,B,] [E,B,][E,B,] [D,B,][D,B,][D,B,][E,B,] | [B,,B,]2 [B,,B,]2 z2 [D,B,][D,B,] | %4
 [E,B,]2 [E,B,]2 [E,G,][C,G,][F,A,][F,A,] | G,2 G,2 z2 G,2 | %6
 [E,G,]2 [E,G,]2 [F,A,][F,A,][F,A,][F,A,] | G,2 G,2 G,4 | [C,G,]2 z2 [C,C][C,C][C,C][C,C] | %9
 [F,A,][F,A,][F,A,][F,A,] [G,B,]>[G,B,] [G,B,]2 | A,>A, A, z [E,G,]>[E,G,] [E,G,][E,G,] | %11
 A,[G,B,] A,2 [E,G,]2 z2 | [E,G,][E,G,][E,G,][E,G,] [=E,G,][E,G,][E,G,][E,C] | %13
 [F,C]2 [=E,C][F,C] [C,C]4 | z CCC C2 C2 | [=E,C]2 [E,C][E,C] [F,C]>[F,C] [F,C][_D,B,] | %16
 [C,C]3 [C,C] [F,,A,]2 z2 | z [F,C] [F,C][E,C]/[E,C]/ [D,B,][D,B,]/[D,B,]/ [D,B,]2 | %18
 [E,B,][E,B,][D,B,][E,B,] [B,,B,]2 [B,,B,]2 | z [D,B,][D,B,][D,B,] [E,B,][E,B,]/[E,B,]/ [E,B,]2 | %20
 [_D,B,][D,B,] [D,B,]>[D,B,] [C,A,]2 z2 | %21
 [A,,A,][A,,A,] [A,,A,][A,,A,]/[A,,A,]/ [G,,B,][G,,B,] [G,,B,]2 | %22
 [A,,A,] !>![A,,A,]2 [_D,F,]/[D,B,]/ [E,B,]2 [E,B,]2 | [_D,B,]3 [D,B,] [C,A,]>[C,A,] [C,A,][A,,C] | %24
 (C2 B,>)B, C2 z2 | [A,,C][A,,C][A,,C][A,,C] [A,,C]>[A,,C] [A,,C][A,,C] | %26
 [=A,,C]3 [A,,C] [B,,F,]>[B,,F,] [B,,F,]2 | z [_D,B,][D,B,][B,,F,] F,F,[F,C][E,C] | %28
 [_D,B,]2 [D,B,][B,,B,] [F,B,]>[F,=A,] [F,A,]2 | z2 F,2 F,F, F,F,/F,/ | %30
 [G,B,]>[G,B,] [G,B,]2 z2 [G,B,]2 | A,>A, A,A, [=D,F,]3 [D,B,] | [E,B,]2 [C,A,][C,A,] [B,,B,]4 | %33
 [E,G,]4 z4 || G,4 B,2 F,2 | [G,,E,]2 [G,,E,][G,,E,] [A,,E,]3 [A,,A,] | [E,G,]2 z2 [E,G,]3 [E,G,] | %37
 A,>A, [F,C]2 [D,F,]4 | E,2 z2 [G,B,]2 [E,B,]2 | %39
 [D,F,][D,F,][D,F,][C,F,] [B,,F,]>[B,,F,] [B,,F,][A,,F,] | E,2 E,2 (E,>F,) G,2 | %41
 z2 E,G, F,>F, D,2 | E,3 E, E,2 F,2 | [D,F,]4 E,2 z2 | [C,C]4 [D,A,]2 z2 | [=B,,G,]4 [C,G,]2 z2 | %46
 _A,3 =A, G,3 A, | [G,,G,]4 [C,E,]2 z2 | z8 |] %49
V:5
 x8 | x8 | x8 | x8 | x8 | G,2 G,,2 x2 (G,F,) | x8 | F,2 (E,C,) G,,4 | x8 | x8 | x8 | x8 | x8 | x8 | %14
 z =E,E,F, G,2 (G,F,) | x8 | x8 | x8 | x8 | x8 | x8 | x8 | x8 | x8 | E,3 E, A,,2 x2 | x8 | x8 | %27
 x8 | x8 | z2 =A,2 B,B, B,_A,/A,/ | x8 | x8 | x8 | x8 || E,4 E,2 (D,B,,) | x8 | x8 | x8 | x8 | x8 | %40
 G,,2 G,,2 A,,2 E,2 | x2 G,E, D,>D, (B,,A,,) | G,,3 G,, (A,,A,)(F,E,) | x8 | x8 | x8 | %46
 (A,, F,,2) ^F,, G,,3 F,, | x8 | x8 |] %49
V:6
 C4 D4 | E4 F4 | G4 A3 G | G2!mf! F2 B3 A | G>F G2 cedc | c2 =Bc dc B2 | c>=B c2 _d3 c | %7
 =B2 c4 B2 | c3 d e4 | _d8 | c4 B4 | c_d c2 B3 A | G8 | F2 GF F2 =EF | G3 F =E3 F | G4 F4- | %16
 F2 =E2 F3 G | A8 | G2 AG G2 F2- | F4 G4- | G4 A3 B | c4 _d4 | c3 B/A/ A2 G2 | B4 c4- | %24
 c2 B2 A3 G | A4 _G4- | G4 F4- | F3 B B =A3 | B3 _d d2 c2- | c4 _d4- | d8 | c4 B3 A | G2 A2 G2 F2 | %33
 E2 BA G2 F2 ||!f! E4 G2 B2- | B4 c4 | B2 z2 B4 | c2 A2 B4 | G2 z2 E2 G2 | B8 | B4 E>F GF | E4 F4 | %42
 G4 E2 F2- | F4 E2 z2 | [EG] [FA]2 [EG] [EG][DF] z2 | [DF] [EG]2 [DF] [DF][CE] z2 | %46
 [CE] [DF]2 [CE]- [CE][=B,D] [CE]2 | E2 D2 C C2 =B, | [G,C]2 z2 z4 |] %49
V:7
 C6 =B,2 | C2 E4 D2 | E4 F3 E | E2 D2 F4 | E4 G2 A2 | G8- | G4 A4 | G8 | E2 GF E4 | F4 E4- | %10
 E4 G4 | AB A2 G2 E=D | E4 C4- | C8- | C8- | C6- CB, | C6- C=E | F8 | E2 FE E2 DC | B,8 | E6- EG | %21
 A4 B4 | A3 F E4 | G4 A4- | A2 G2 E3 _D | C8- | C4 _D4- | D4- DC F2- | F3 B B2 =A2 | F8 | E4 B4 | %31
 A4 F4 | E6 D2 | E6 D2 || B,4 E2 F2 | G4 E4- | E3 F G4 | E2 F6 | E2 x2 B,2 E2 | F3 E D4 | %40
 E4 C>D E2 | B,6 D2 | E4 C4 | B,6 x2 | x8 | x8 | x8 | C2 =B,2 G,2 A,G, | x8 |] %49
V:8
!p! E,4 G,4- | G,2 C4 B,2- | B,8- | B,8- | B,4 E2 FE | E2 D2 G,2 D2 | G4!p! F4 | =D2 E2 D4 | %8
 C3 =B, C4 | A,4 B,4 | C4 E4- | E6 G,A, | B,8 | A,2 B,A, A,2 G,2- | G,3 A, B,4- | B,2 G,2 A,2 F,2 | %16
 A,2 G,2 A,3 B, | C4 B,4- | B,8 | F,4 E,4 | B,4 C3 _D | E8- | E3 _D B,4 | E8- | E4 C2 A,B, | E,8- | %26
 E,4 B,4 | F,6 C2 | F8 | C4 B,4- | B,4 E4- | E4 F2 B,2- | B,2 A,2 B,4 | G,3 C B,4 || G,4 B,3 D | %35
 E4 C4 | G,3 B, E4 | C4 B,4- | B,2 z2 B,4 | F,8 | B,4 A,2 B,2 | G,2 E,G, B,4- | B,4 A,4 | %43
 F,4 G,2 z2 | C4 A,2 z2 | G,4 G,2 z2 | _A,3 =A, G,3 A, | G,4 E,2 D,2 | E,2 z2 z4 |] %49
V:9
"^Basso continuo" C,C,C,C, G,,G,,G,,G,, | C,C,C,C, A,,A,,B,,B,, | E,E,E,E, D,D,D,E, | %3
 B,,B,,B,,B,, D,D,D,D, | E,E,E,E, E,C,F,F, | G,G,G,=A, =B,A,G,F, | E,E,E,E, F,F,F,F, | %7
 F,F,E,C, G,,G,,G,,G,, | C,C,E,D, C,C,C,C, | F,F,F,F, G,G,G,G, | A,A,A,A, E,E,E,E, | %11
 A,G,A,A, E,E,G,F, | E,E,E,E, =E,E,E,E, | F,F,=E,F, C,C,C,D, | =E,E,E,F, G,G,G,F, | %15
 =E,E,E,E, F,F,F,_D, | C,C,C,,C,, F,,F,,A,,G,, | F,,F,F,E, =D,D,D,D, | E,E,D,E, B,,B,,B,,C, | %19
 D,D,D,D, E,E,E,E, | _D,D,D,D, C,C,C,B,, | A,,A,,A,,G,, G,,G,,G,,G,, | A,,A,,A,,_D, E,E,E,E, | %23
 _D,D,D,D, C,C,C,A,, | E,E,E,,E,, A,,A,,C,B,, | A,,A,,A,,A,, A,,A,,A,,A,, | %26
 =A,,A,,A,,A,, B,,B,,B,,B,, | _D,D,D,B,, F,F,F,E, | _D,D,D,B,, F,F,F,F, | =A,A,A,A, B,B,B,_A, | %30
 G,G,G,G, G,G,G,G, | A,A,A,A, =D,D,D,D, | E,E,C,C, B,,B,,B,,B,, | E,E,G,,A,, B,,B,,B,,B,, || %34
 E,E,.G,.F, .E,.E,D,B,, | G,,G,,G,,G,, A,,A,,A,,A,, | E,E,.G,.F, E,E,E,E, | A,A,F,F, D,D,D,D, | %38
 E,E,.G,.F, G,G,E,E, | D,D,D,C, B,,B,,B,,A,, | G,,G,,G,,G,, A,,A,,E,F, | G,G,G,E, D,D,B,,A,, | %42
 G,,G,,G,,G,, A,,A,F,E, | D,D,D,D, E,E,.E,.D, | C,C,C,C, D,D,.D,.C, | =B,,B,,B,,B,, C,C,.C,._B,, | %46
 A,,F,,F,,^F,, G,,G,,G,,F,, | G,,G,,G,,G,, C,C,F,,G,, | C,2 z2 z4 |] %49

